app/assets/images/heroicons/micro/forward.svg

<svg width="16" height="16" viewBox="0 0 16 16" fill="none" xmlns="http://www.w3.org/2000/svg">
<path d="M2.53 3.95633C1.86395 3.54005 1 4.0189 1 4.80433V11.1958C1 11.9813 1.86395 12.4601 2.53 12.0438L7.6432 8.84808C7.80276 8.74836 7.92169 8.61486 8 8.46479V11.1958C8 11.9813 8.86395 12.4601 9.53 12.0438L14.6432 8.84808C15.2699 8.45642 15.2699 7.54376 14.6432 7.15209L9.53 3.95633C8.86395 3.54005 8 4.0189 8 4.80433V7.53538C7.92169 7.38531 7.80276 7.25181 7.6432 7.15209L2.53 3.95633Z" fill="black"/>
</svg>

<svg xmlns="http://www.w3.org/2000/svg" viewBox="0 0 16 16" fill="currentColor" aria-hidden="true" data-slot="icon">
  <path d="M2.53 3.956A1 1 0 0 0 1 4.804v6.392a1 1 0 0 0 1.53.848l5.113-3.196c.16-.1.279-.233.357-.383v2.73a1 1 0 0 0 1.53.849l5.113-3.196a1 1 0 0 0 0-1.696L9.53 3.956A1 1 0 0 0 8 4.804v2.731a.992.992 0 0 0-.357-.383L2.53 3.956Z"/>
</svg>
